packages/editor-ui/public/n8n-nightly-logo-dark-mode.svg

<svg width="230" height="40" viewBox="0 0 230 40" fill="none" xmlns="http://www.w3.org/2000/svg">
<mask id="mask0_1486_25952" style="mask-type:luminance" maskUnits="userSpaceOnUse" x="0" y="0" width="143" height="40">
<path d="M0 0H143V40H0V0Z" fill="white"/>
</mask>
<g mask="url(#mask0_1486_25952)">
<path fill-rule="evenodd" clip-rule="evenodd" d="M78.974 7.99999C78.9759 9.94852 78.2666 11.8308 76.9792 13.2934C75.6919 14.7561 73.9149 15.6987 71.9819 15.9442C70.0489 16.1896 68.0927 15.7212 66.4806 14.6268C64.8685 13.5323 63.7112 11.8871 63.226 9.99999H52.056C51.1093 10.0001 50.1933 10.336 49.471 10.9479C48.7486 11.5599 48.2667 12.4082 48.111 13.342L47.782 15.315C47.4809 17.1296 46.5625 18.7845 45.182 20C46.5625 21.2155 47.4809 22.8704 47.782 24.685L48.111 26.658C48.2667 27.5918 48.7486 28.4401 49.471 29.052C50.1933 29.664 51.1093 29.9999 52.056 30H55.226C55.7128 28.1147 56.8704 26.4716 58.482 25.3788C60.0936 24.286 62.0484 23.8184 63.98 24.0638C65.9116 24.3091 67.6875 25.2505 68.9746 26.7115C70.2618 28.1725 70.972 30.0528 70.972 32C70.972 33.9471 70.2618 35.8274 68.9746 37.2885C67.6875 38.7495 65.9116 39.6909 63.98 39.9362C62.0484 40.1816 60.0936 39.714 58.482 38.6212C56.8704 37.5284 55.7128 35.8853 55.226 34H52.056C50.1624 33.9997 48.3304 33.3278 46.8857 32.1037C45.4409 30.8796 44.4772 29.1828 44.166 27.315L43.836 25.342C43.6803 24.4082 43.1984 23.5599 42.476 22.9479C41.7537 22.336 40.8377 22.0001 39.891 22H36.628C36.1269 23.6394 35.1128 25.0747 33.7348 26.0945C32.3568 27.1142 30.6878 27.6646 28.9735 27.6646C27.2592 27.6646 25.5902 27.1142 24.2122 26.0945C22.8342 25.0747 21.82 23.6394 21.319 22H16.628C16.0603 23.8624 14.8329 25.4538 13.1758 26.476C11.5187 27.4982 9.54577 27.881 7.62666 27.5527C5.70756 27.2244 3.97405 26.2075 2.75102 24.6926C1.52799 23.1777 0.899395 21.2687 0.983038 19.3236C1.06668 17.3784 1.85682 15.5305 3.20538 14.1261C4.55394 12.7218 6.36834 11.8575 8.30854 11.6951C10.2487 11.5327 12.1816 12.0835 13.7448 13.2442C15.308 14.4049 16.3942 16.0958 16.8 18H21.148C21.5311 16.2087 22.5172 14.603 23.9415 13.4511C25.3658 12.2992 27.1422 11.6708 28.974 11.6708C30.8058 11.6708 32.5822 12.2992 34.0065 13.4511C35.4308 14.603 36.4169 16.2087 36.8 18H39.89C40.8369 18.0001 41.7531 17.6643 42.4756 17.0524C43.1982 16.4404 43.6802 15.592 43.836 14.658L44.166 12.685C44.4772 10.8174 45.4408 9.12065 46.8853 7.8966C48.3298 6.67255 50.1616 6.00051 52.055 5.99999H63.225C63.7102 4.11284 64.8675 2.46765 66.4796 1.37321C68.0917 0.278773 70.0479 -0.189661 71.9809 0.0558311C73.9139 0.301323 75.6909 1.24386 76.9782 2.70654C78.2656 4.16921 78.9759 6.05146 78.974 7.99999ZM74.974 7.99999C74.974 9.06086 74.5526 10.0783 73.8024 10.8284C73.0523 11.5786 72.0349 12 70.974 12C69.9131 12 68.8957 11.5786 68.1456 10.8284C67.3954 10.0783 66.974 9.06086 66.974 7.99999C66.974 6.93913 67.3954 5.92171 68.1456 5.17156C68.8957 4.42142 69.9131 3.99999 70.974 3.99999C72.0349 3.99999 73.0523 4.42142 73.8024 5.17156C74.5526 5.92171 74.974 6.93913 74.974 7.99999ZM8.97399 23.667C10.0349 23.667 11.0523 23.2456 11.8024 22.4954C12.5526 21.7453 12.974 20.7279 12.974 19.667C12.974 18.6061 12.5526 17.5887 11.8024 16.8386C11.0523 16.0884 10.0349 15.667 8.97399 15.667C7.91312 15.667 6.89571 16.0884 6.14556 16.8386C5.39542 17.5887 4.97399 18.6061 4.97399 19.667C4.97399 20.7279 5.39542 21.7453 6.14556 22.4954C6.89571 23.2456 7.91312 23.667 8.97399 23.667ZM28.974 23.667C30.0349 23.667 31.0523 23.2456 31.8024 22.4954C32.5526 21.7453 32.974 20.7279 32.974 19.667C32.974 18.6061 32.5526 17.5887 31.8024 16.8386C31.0523 16.0884 30.0349 15.667 28.974 15.667C27.9131 15.667 26.8957 16.0884 26.1456 16.8386C25.3954 17.5887 24.974 18.6061 24.974 19.667C24.974 20.7279 25.3954 21.7453 26.1456 22.4954C26.8957 23.2456 27.9131 23.667 28.974 23.667ZM62.974 36C64.0349 36 65.0523 35.5786 65.8024 34.8284C66.5526 34.0783 66.974 33.0609 66.974 32C66.974 30.9391 66.5526 29.9217 65.8024 29.1716C65.0523 28.4214 64.0349 28 62.974 28C61.9131 28 60.8957 28.4214 60.1456 29.1716C59.3954 29.9217 58.974 30.9391 58.974 32C58.974 33.0609 59.3954 34.0783 60.1456 34.8284C60.8957 35.5786 61.9131 36 62.974 36Z" fill="#EA4B71"/>
<path d="M86.978 30.0009H91.155V21.1579C91.155 18.2539 92.917 16.9809 94.908 16.9809C96.866 16.9809 98.4 18.2859 98.4 20.9619V30.0009H102.576V20.1139C102.576 15.8389 100.096 13.3589 96.213 13.3589C93.766 13.3589 92.395 14.3379 91.416 15.6099H91.156L90.796 13.6849H86.98L86.978 30.0009ZM118.563 19.0039V18.8079C119.999 18.0899 121.435 16.8499 121.435 14.4029C121.435 10.8789 118.53 8.75793 114.517 8.75793C110.405 8.75793 107.468 11.0089 107.468 14.4679C107.468 16.8179 108.839 18.0899 110.34 18.8079V19.0039C109.257 19.396 108.323 20.1157 107.668 21.0631C107.013 22.0104 106.669 23.1383 106.685 24.2899C106.685 27.8469 109.622 30.3269 114.484 30.3269C119.346 30.3269 122.185 27.8469 122.185 24.2899C122.185 21.3539 120.227 19.6239 118.563 19.0039ZM114.484 11.7599C116.116 11.7599 117.323 12.8039 117.323 14.5659C117.323 16.3279 116.083 17.3729 114.484 17.3729C112.885 17.3729 111.547 16.3279 111.547 14.5659C111.547 12.7719 112.82 11.7599 114.484 11.7599ZM114.484 27.1949C112.591 27.1949 111.058 25.9869 111.058 23.9319C111.058 22.0719 112.33 20.6679 114.451 20.6679C116.54 20.6679 117.813 22.0379 117.813 23.9969C117.813 25.9869 116.344 27.1949 114.484 27.1949ZM126.428 30.0009H130.605V21.1579C130.605 18.2539 132.367 16.9809 134.358 16.9809C136.316 16.9809 137.849 18.2859 137.849 20.9619V30.0009H142.026V20.1139C142.026 15.8389 139.546 13.3589 135.663 13.3589C133.216 13.3589 131.845 14.3379 130.866 15.6099H130.605L130.246 13.6849H126.428V30.0009Z" fill="white"/>
</g>
<path d="M214.852 12.5H158.149C155.858 12.5 154 14.3576 154 16.649V27.351C154 29.6424 155.858 31.5 158.149 31.5H214.852C217.143 31.5 219.001 29.6424 219.001 27.351V16.649C219.001 14.3576 217.143 12.5 214.852 12.5Z" fill="#EA4B71"/>
<path d="M162.985 26.3119L160.489 18.6879C160.53 18.9573 160.577 19.3039 160.632 19.7279C160.687 20.1473 160.732 20.6143 160.769 21.1289C160.81 21.6443 160.831 22.1799 160.831 22.7359V26.3119H158.923V16.8349H161.72L164.14 24.4179C164.067 23.9846 163.991 23.4309 163.914 22.7569C163.837 22.0823 163.798 21.3186 163.798 20.4659V16.8359H165.706V26.3119H162.985ZM173.596 16.8349V18.4759H171.641V24.6639H173.596V26.3119H167.443V24.6639H169.398V18.4759H167.443V16.8359L173.596 16.8349ZM179.073 26.5449C177.728 26.5449 176.7 26.1209 175.989 25.2729C175.282 24.4203 174.929 23.1803 174.929 21.5529C174.929 20.4776 175.125 19.5729 175.518 18.8389C175.91 18.1003 176.439 17.5419 177.104 17.1639C177.769 16.7853 178.512 16.5959 179.333 16.5959C180.026 16.5959 180.61 16.7029 181.083 16.9169C181.557 17.1316 181.979 17.4143 182.348 17.7649L181.172 18.9819C180.885 18.7266 180.61 18.5376 180.345 18.4149C180.08 18.2916 179.779 18.2299 179.442 18.2299C179.018 18.2299 178.64 18.3439 178.307 18.5719C177.979 18.7953 177.719 19.1533 177.527 19.6459C177.336 20.1333 177.241 20.7733 177.241 21.5659C177.241 22.3913 177.307 23.0479 177.439 23.5359C177.576 24.0239 177.781 24.3749 178.054 24.5889C178.327 24.7983 178.674 24.9029 179.094 24.9029C179.317 24.9029 179.527 24.8779 179.723 24.8279C179.919 24.7733 180.101 24.7026 180.27 24.6159V22.4499H179.08L178.861 20.8769H182.389V25.5879C181.916 25.8799 181.405 26.1126 180.858 26.2859C180.315 26.4593 179.72 26.5449 179.073 26.5449ZM188.078 26.3119V22.3189H185.781V26.3119H183.538V16.8349H185.781V20.4729H188.078V16.8349H190.321V26.3119H188.078ZM196.242 18.5519V26.3119H193.999V18.5519H191.339V16.8349H199.011L198.779 18.5519H196.242ZM200.508 26.3119V16.8349H202.751V24.5409H206.861L206.628 26.3119H200.508ZM212.665 22.7569V26.3119H210.423V22.7699L207.333 16.8349H209.787L211.585 20.9169L213.397 16.8349H215.756L212.665 22.7569Z" fill="white"/>
</svg>

<svg xmlns="http://www.w3.org/2000/svg" width="230" height="40" fill="none"><mask id="a" width="143" height="40" x="0" y="0" maskUnits="userSpaceOnUse" style="mask-type:luminance"><path fill="#fff" d="M0 0h143v40H0z"/></mask><g mask="url(#a)"><path fill="#EA4B71" fill-rule="evenodd" d="M78.974 8a8 8 0 0 1-15.748 2h-11.17a4 4 0 0 0-3.945 3.342l-.329 1.973a7.98 7.98 0 0 1-2.6 4.685 7.98 7.98 0 0 1 2.6 4.685l.329 1.973A4 4 0 0 0 52.056 30h3.17a8 8 0 1 1 0 4h-3.17a8 8 0 0 1-7.89-6.685l-.33-1.973A4 4 0 0 0 39.891 22h-3.263a8.005 8.005 0 0 1-15.309 0h-4.691a8 8 0 1 1 .172-4h4.348A8.003 8.003 0 0 1 36.8 18h3.09a4 4 0 0 0 3.946-3.342l.33-1.973A8 8 0 0 1 52.055 6h11.17a8 8 0 0 1 15.749 2m-4 0a4 4 0 1 1-8 0 4 4 0 0 1 8 0m-66 15.667a4 4 0 1 0 0-8 4 4 0 0 0 0 8m20 0a4 4 0 1 0 0-8 4 4 0 0 0 0 8m34 12.333a4 4 0 1 0 0-8 4 4 0 0 0 0 8" clip-rule="evenodd"/><path fill="#fff" d="M86.978 30h4.177v-8.842c0-2.904 1.762-4.177 3.753-4.177 1.958 0 3.492 1.305 3.492 3.98v9.04h4.176v-9.887c0-4.275-2.48-6.755-6.363-6.755-2.447 0-3.818.979-4.797 2.25h-.26l-.36-1.924H86.98zm31.585-10.996v-.196c1.436-.718 2.872-1.958 2.872-4.405 0-3.524-2.905-5.645-6.918-5.645-4.112 0-7.049 2.25-7.049 5.71 0 2.35 1.371 3.622 2.872 4.34v.196a5.54 5.54 0 0 0-3.655 5.286c0 3.557 2.937 6.037 7.799 6.037s7.701-2.48 7.701-6.037c0-2.936-1.958-4.666-3.622-5.286m-4.079-7.244c1.632 0 2.839 1.044 2.839 2.806s-1.24 2.807-2.839 2.807-2.937-1.045-2.937-2.807c0-1.794 1.273-2.806 2.937-2.806m0 15.435c-1.893 0-3.426-1.208-3.426-3.263 0-1.86 1.272-3.264 3.393-3.264 2.089 0 3.362 1.37 3.362 3.329 0 1.99-1.469 3.198-3.329 3.198M126.428 30h4.177v-8.843c0-2.904 1.762-4.177 3.753-4.177 1.958 0 3.491 1.305 3.491 3.98V30h4.177v-9.887c0-4.275-2.48-6.755-6.363-6.755-2.447 0-3.818.979-4.797 2.25h-.261l-.359-1.924h-3.818z"/></g><path fill="#EA4B71" d="M214.852 12.5h-56.703A4.15 4.15 0 0 0 154 16.649v10.702a4.15 4.15 0 0 0 4.149 4.149h56.703a4.15 4.15 0 0 0 4.149-4.149V16.649a4.15 4.15 0 0 0-4.149-4.149"/><path fill="#fff" d="m162.985 26.312-2.496-7.624q.061.404.143 1.04.082.63.137 1.4.062.774.062 1.608v3.576h-1.908v-9.477h2.797l2.42 7.583a33 33 0 0 1-.226-1.661 20 20 0 0 1-.116-2.291v-3.63h1.908v9.476zm10.611-9.477v1.64h-1.955v6.189h1.955v1.648h-6.153v-1.648h1.955v-6.188h-1.955v-1.64zm5.477 9.71q-2.018 0-3.084-1.272-1.06-1.28-1.06-3.72 0-1.613.589-2.714.588-1.108 1.586-1.675.997-.568 2.229-.568 1.04 0 1.75.32.711.323 1.265.849l-1.176 1.217a3.5 3.5 0 0 0-.827-.567 2.1 2.1 0 0 0-.903-.185 1.96 1.96 0 0 0-1.135.342q-.492.334-.78 1.074-.286.73-.286 1.92 0 1.238.198 1.97.206.732.615 1.053.41.314 1.04.314.335 0 .629-.075.294-.082.547-.212V22.45h-1.19l-.219-1.573h3.528v4.71a6.8 6.8 0 0 1-1.531.699 5.8 5.8 0 0 1-1.785.259m9.005-.233v-3.993h-2.297v3.993h-2.243v-9.477h2.243v3.638h2.297v-3.638h2.243v9.477zm8.164-7.76v7.76h-2.243v-7.76h-2.66v-1.717h7.672l-.232 1.717zm4.266 7.76v-9.477h2.243v7.706h4.11l-.233 1.77zm12.157-3.555v3.555h-2.242V22.77l-3.09-5.935h2.454l1.798 4.082 1.812-4.082h2.359z"/></svg>
